X:480
T:Humours of Dingle
R:jig
Z:Transcribed by Dave Marshall
M:6/8
K:D
|: dAF ~F3 | DEF FED | AFD ~E3 | EFE EFA |
dAF ~F3 | DFA d2e | fed cdB |1 BAG ABc :|2 BAG A2B
|:cee cee | ~c3 ABc | dcd ~f3 | agf ecA |
cee cee | cBA d2e | fed cdB |1 BAG A2B :|2 BAG ABc |
